packages/assets/static/images/icons/dog.svg

<svg width="24" height="24" viewBox="0 0 24 24" xmlns="http://www.w3.org/2000/svg">
<path d="M22.4728 11.7187L20.9334 3.46872C20.8958 3.26762 20.8175 3.07635 20.7032 2.90665C20.5889 2.73696 20.4411 2.59243 20.2689 2.48197C20.0967 2.3715 19.9038 2.29743 19.7019 2.2643C19.5 2.23117 19.2935 2.2397 19.095 2.28934L19.0659 2.29778L14.1422 3.74997H9.85781L4.93406 2.30247L4.905 2.29403C4.70653 2.24438 4.5 2.23586 4.29812 2.26899C4.09623 2.30211 3.90326 2.37619 3.73106 2.48665C3.55886 2.59712 3.41108 2.74164 3.29681 2.91134C3.18253 3.08103 3.10418 3.27231 3.06656 3.47341L1.52719 11.7187C1.46136 12.0489 1.51022 12.3917 1.6657 12.6904C1.82117 12.9891 2.07394 13.2257 2.38219 13.3612C2.5796 13.4518 2.79407 13.4991 3.01125 13.5C3.27119 13.4998 3.52633 13.4299 3.75 13.2975V17.25C3.75 18.2445 4.14509 19.1984 4.84835 19.9016C5.55161 20.6049 6.50544 21 7.5 21H16.5C17.4946 21 18.4484 20.6049 19.1517 19.9016C19.8549 19.1984 20.25 18.2445 20.25 17.25V13.2984C20.4734 13.4306 20.7282 13.5005 20.9878 13.5009C21.2052 13.5003 21.42 13.4533 21.6178 13.3631C21.9264 13.2275 22.1795 12.9906 22.335 12.6915C22.4905 12.3924 22.5391 12.0492 22.4728 11.7187ZM3 12L4.54031 3.74997L8.48438 4.90966L3 12ZM16.5 19.5H12.75V18.3103L14.0306 17.0306C14.1714 16.8899 14.2504 16.699 14.2504 16.5C14.2504 16.3009 14.1714 16.1101 14.0306 15.9693C13.8899 15.8286 13.699 15.7496 13.5 15.7496C13.301 15.7496 13.1101 15.8286 12.9694 15.9693L12 16.9397L11.0306 15.9693C10.8899 15.8286 10.699 15.7496 10.5 15.7496C10.301 15.7496 10.1101 15.8286 9.96938 15.9693C9.82864 16.1101 9.74958 16.3009 9.74958 16.5C9.74958 16.699 9.82864 16.8899 9.96938 17.0306L11.25 18.3103V19.5H7.5C6.90326 19.5 6.33097 19.2629 5.90901 18.841C5.48705 18.419 5.25 17.8467 5.25 17.25V11.5415L10.1175 5.24997H13.8816L18.75 11.5415V17.25C18.75 17.8467 18.5129 18.419 18.091 18.841C17.669 19.2629 17.0967 19.5 16.5 19.5ZM21 12L15.5156 4.90966L19.4597 3.74997L21 12ZM9.75 13.125C9.75 13.3475 9.68402 13.565 9.5604 13.75C9.43679 13.935 9.26109 14.0792 9.05552 14.1643C8.84995 14.2495 8.62375 14.2718 8.40552 14.2284C8.18729 14.1849 7.98684 14.0778 7.8295 13.9205C7.67217 13.7631 7.56503 13.5627 7.52162 13.3444C7.47821 13.1262 7.50049 12.9 7.58564 12.6945C7.67078 12.4889 7.81498 12.3132 7.99998 12.1896C8.18499 12.0659 8.4025 12 8.625 12C8.92337 12 9.20952 12.1185 9.4205 12.3295C9.63147 12.5405 9.75 12.8266 9.75 13.125ZM16.5 13.125C16.5 13.3475 16.434 13.565 16.3104 13.75C16.1868 13.935 16.0111 14.0792 15.8055 14.1643C15.6 14.2495 15.3738 14.2718 15.1555 14.2284C14.9373 14.1849 14.7368 14.0778 14.5795 13.9205C14.4222 13.7631 14.315 13.5627 14.2716 13.3444C14.2282 13.1262 14.2505 12.9 14.3356 12.6945C14.4208 12.4889 14.565 12.3132 14.75 12.1896C14.935 12.0659 15.1525 12 15.375 12C15.6734 12 15.9595 12.1185 16.1705 12.3295C16.3815 12.5405 16.5 12.8266 16.5 13.125Z"/>
</svg>

<svg viewBox="0 0 24 24" xmlns="http://www.w3.org/2000/svg" aria-hidden="true" fill="currentColor"><path d="m22.473 11.719-1.54-8.25a1.5 1.5 0 0 0-1.838-1.18l-.03.009-4.923 1.452H9.858L4.934 2.302l-.029-.008a1.5 1.5 0 0 0-1.838 1.18l-1.54 8.245a1.48 1.48 0 0 0 .855 1.642c.198.09.412.138.63.139.26 0 .514-.07.738-.203v3.953A3.75 3.75 0 0 0 7.5 21h9a3.75 3.75 0 0 0 3.75-3.75v-3.952c.223.133.478.203.738.203.217 0 .432-.048.63-.138a1.48 1.48 0 0 0 .855-1.644M3 12l1.54-8.25 3.944 1.16zm13.5 7.5h-3.75v-1.19l1.28-1.28a.75.75 0 1 0-1.06-1.06l-.97.97-.97-.97a.75.75 0 0 0-1.06 1.06l1.28 1.28v1.19H7.5a2.25 2.25 0 0 1-2.25-2.25v-5.709l4.868-6.291h3.764l4.868 6.291v5.709a2.25 2.25 0 0 1-2.25 2.25M21 12l-5.484-7.09 3.944-1.16zM9.75 13.125a1.125 1.125 0 1 1-2.25 0 1.125 1.125 0 0 1 2.25 0m6.75 0a1.125 1.125 0 1 1-2.25 0 1.125 1.125 0 0 1 2.25 0"/></svg>
